static/img/icons/ico-pin.svg

<svg fill="none" height="100" viewBox="0 0 100 100" width="100" xmlns="http://www.w3.org/2000/svg"><g fill="#65b400"><path d="m49.9997 43.3333c6.4333 0 11.6666-5.235 11.6666-11.6666 0-6.4317-5.2333-11.6667-11.6666-11.6667-6.4334 0-11.6667 5.235-11.6667 11.6667 0 6.4316 5.2333 11.6666 11.6667 11.6666zm0-19.8333c4.595 0 8.0003 3.5717 8.0003 8.1667s-3.4053 7.8333-8.0003 7.8333-7.9997-3.2383-7.9997-7.8333 3.4047-8.1667 7.9997-8.1667z"/><path d="m49.7049 91.2617 25.5683-36.9284c9.59-12.785 8.2034-33.8-2.9683-44.96997-6.0367-6.03833-14.0633-9.36333-22.6-9.36333s-16.5633 3.325-22.6 9.36167c-11.1717 11.17003-12.5583 32.18503-3.0067 44.92003zm-19.7049-79.5434c5.4083-5.40663 12.0582-7.7183 19.7049-7.7183s14.3868 2.31167 19.7951 7.7183c10.0833 10.0817 11.2033 29.0117 2.5 40.615l-22.2951 32.6667-22.6-32.6667c-8.6667-11.5533-7.1866-30.5333 2.8951-40.615z"/><path d="m70.195 71.6783c-.9167-.1117-1.7433.545-1.85 1.46s.5467 1.7433 1.46 1.85c17.5267 2.0633 26.8617 7.6233 26.8617 10.845 0 4.5233-17.7534 10.8333-46.6667 10.8333s-46.66667-6.31-46.66667-10.8333c0-3.2217 9.33497-8.7817 26.86167-10.845.9133-.1067 1.5667-.9367 1.46-1.85-.1083-.915-.935-1.575-1.85-1.46-17.5483 2.0667-29.805 7.8867-29.805 14.155 0 7.04 17.175 14.1667 50 14.1667s50-7.1267 50-14.1667c0-6.2683-12.2567-12.0883-29.805-14.155z"/></g></svg>

<svg width="100" height="100" viewBox="0 0 100 100" fill="none" xmlns="http://www.w3.org/2000/svg">
<path d="M49.9997 43.3333C56.433 43.3333 61.6663 38.0983 61.6663 31.6667C61.6663 25.235 56.433 20 49.9997 20C43.5663 20 38.333 25.235 38.333 31.6667C38.333 38.0983 43.5663 43.3333 49.9997 43.3333ZM49.9997 23.5C54.5947 23.5 58 27.0717 58 31.6667C58 36.2617 54.5947 39.5 49.9997 39.5C45.4047 39.5 42 36.2617 42 31.6667C42 27.0717 45.4047 23.5 49.9997 23.5Z" fill="#65B400"/>
<path d="M49.7049 91.2617L75.2732 54.3333C84.8632 41.5483 83.4766 20.5333 72.3049 9.36333C66.2682 3.325 58.2416 0 49.7049 0C41.1682 0 33.1416 3.325 27.1049 9.36167C15.9332 20.5317 14.5466 41.5467 24.0982 54.2817L49.7049 91.2617ZM30 11.7183C35.4083 6.31167 42.0582 4 49.7049 4C57.3516 4 64.0917 6.31167 69.5 11.7183C79.5833 21.8 80.7033 40.73 72 52.3333L49.7049 85L27.1049 52.3333C18.4382 40.78 19.9183 21.8 30 11.7183Z" fill="#65B400"/>
<path d="M70.195 71.6783C69.2783 71.5666 68.4517 72.2233 68.345 73.1383C68.2383 74.0533 68.8917 74.8816 69.805 74.9883C87.3317 77.0516 96.6667 82.6116 96.6667 85.8333C96.6667 90.3566 78.9133 96.6666 50 96.6666C21.0867 96.6666 3.33333 90.3566 3.33333 85.8333C3.33333 82.6116 12.6683 77.0516 30.195 74.9883C31.1083 74.8816 31.7617 74.0516 31.655 73.1383C31.5467 72.2233 30.72 71.5633 29.805 71.6783C12.2567 73.745 0 79.565 0 85.8333C0 92.8733 17.175 100 50 100C82.825 100 100 92.8733 100 85.8333C100 79.565 87.7433 73.745 70.195 71.6783Z" fill="#65B400"/>
</svg>
